X:1
T:Morwellham, 86.86.86
T:Morwellham, 86.86.86
T:Charles Henry Steggall, 1890
T:Public Domain Courtesy of the Cyber Hymnal™
C:Charles Henry Steggall, 1890
Z:Public Domain
Z:Courtesy of the Cyber Hymnal™
%%score ( 1 2 ) ( 3 4 )
L:1/8
Q:1/4=109
M:4/4
K:Eb
V:1 treble 
V:2 treble 
V:3 bass 
V:4 bass 
V:1
 (GA) | [EB]2 [Ec]2 [EB]2 [DG]2 | [CE]2 [EA]2 [EG]2 (CD) | [B,E]2 [DF]2 [EG]2 [EA]2 | [DF]6 (GF) | %5
 E2 [CE]2 [B,E]2 [DF]2 | [EG]2 [F=A]2 [FB]2 (Bc) | [Fd]2 [DB]2 c3 F2 | [DB]6 [EB]2 | %9
 [Ec]2 [Fd]2 [EB]2 [Gc]2 | [FA]2 (GF) [EB]2 (EF) | [EG]2 [EA]2 [EF]2 D2 | E6 |] %13
V:2
 E2 | x8 | x6 C2 | x8 | x6 D2 | E2 x6 | x6 E2 | x4 G2 (Fc) x | x8 | x8 | x2 D2 x E2 x | x6 (DE) | %12
 E6 |] %13
V:3
 E,2 | [E,G,]2 [E,A,]2 [E,G,]2 [B,,B,]2 | [C,G,]2 [A,,C]2 [E,B,]2 A,2 | %3
 [G,B,]2 [F,A,]2 [E,B,]2 [A,,C]2 | [B,,B,]6 [B,,A,]2 | [C,G,]2 A,2 [G,B,]2 [F,A,]2 | %6
 [E,B,]2 [E,C]2 [D,D]2 (G,=A,) | [B,,B,]2 [G,B,]2 [E,B,]2 [F,=A,]2 x | [B,,B,]6 [G,B,]2 | %9
 A,2 [F,A,]2 [G,B,]2 [E,E]2 | [F,C]2 [A,B,]2 [G,B,]2 (G,A,) | [B,,B,]2 [A,,C]2 [B,,B,]2 [B,,A,]2 | %12
 [E,G,]6 |] %13
V:4
 (E,F,) | x8 | x6 A,2 | x8 | x8 | x8 | x6 C,2 | x9 | x8 | A,2 x6 | x6 C,2 | x8 | x6 |] %13

